X: 22598
T: Lady On The Boat, The
R: jig
M: 6/8
K: Dmajor
|:A|dfA d2 A|dfA d2 f|a2 f fed|efe ecA|
dfA d2 A|dfA d2 f|a2 f efe|d3 d2:|
|:g|f2 f gfg|a3 f2 g|a2 f fed|efe ecA|
f2 f gfg|a3 f2 g|a2 f efe|d3 d2:|

